X:11
T:Warson hunt - parsons
C:Taken down from Jas. Parsons, by S.B.G.  Jan. 1889.
%%VWML:SBG-1-1-210-0
F:http://www.vwml.org/record/SBG/1/1/210
Z:Original Sibleius Transcription by Martin and Shan Graebe
M:4/4
L:1/8
K:F
C2 | F2>E2 F2 G2 | A2 G2 F2 E2 | D2 C2 D2 E2 | F4z2 G2 | c2 B2 A2 G2 |F2>G2 A2 B2 | A2 G2 F2 E2 |
 F4z2 c2| c2 d2 c2 f2 |e2 d2 c2 ^c2 | e2>d2 d2 c2 | d4z2 c2 | F2 F2 A2 B2 |
c2 d2 c2 c2 | F2 F2 G2 E2 | F4z2"Chorus"C2 | F2 E2 F2 G2 |A2 G2 F2 E2 | D2 C2 D2 E2 | F4z2|| |


